src/assets/icons/download-simple.svg

<svg height="40" viewBox="0 0 40 40" width="40" xmlns="http://www.w3.org/2000/svg"><path d="m12.4142136 15.9533198-.7071068.7071068 8.253787 8.253787 8.5-8.5-.7071068-.7071068-7.253787 7.253787v-13.4608938h-1v13.5391062zm-.9142136 14.5466802v1h17v-1z" fill="#d8d8d8" fill-rule="evenodd" stroke="#979797"/></svg>

<svg width="19px" height="23px" viewBox="0 0 19 23" version="1.1" xmlns="http://www.w3.org/2000/svg" xmlns:xlink="http://www.w3.org/1999/xlink">
    <defs>
        <path d="M19,21.8319994 L19,9 L21,9 L21,21.753787 L27.753787,15 L29.1680006,16.4142136 L19.9608938,25.6213203 L11,16.6604266 L12.4142136,15.246213 L19,21.8319994 Z M11,30 L29,30 L29,32 L11,32 L11,30 Z" id="path-1"></path>
    </defs>
    <g id="Symbols" stroke="none" stroke-width="1" fill="none" fill-rule="evenodd">
        <g id="Icon/Download" transform="translate(-11.000000, -9.000000)">
            <mask id="mask-2" fill="white">
                <use xlink:href="#path-1"></use>
            </mask>
            <path stroke="#979797" d="M12.4142136,15.9533198 L11.7071068,16.6604266 L19.9608938,24.9142136 L28.4608938,16.4142136 L27.753787,15.7071068 L20.5,22.9608938 L20.5,9.5 L19.5,9.5 L19.5,23.0391062 L12.4142136,15.9533198 Z M11.5,30.5 L11.5,31.5 L28.5,31.5 L28.5,30.5 L11.5,30.5 Z"></path>
        </g>
    </g>
</svg>
